SynthDef.new("openai-o1-preview-2024_12_18_06_03_16", { |out=0, amp=0.5|
  var sound;
  var scale, rootNote, degrees;
  var padFreqs, padOscs, padDetune, pad;
  var melodyTrig, melodyDegree, melodyFreq, melodyEnv, melodyOsc;
  var noiseEnvs, noiseFilterFreqs, noises, noise;
  var pulseTrigs, pulseDegrees, pulseFreqs, pulseEnvs, pulseOscs, pulseOsc;
  var lfos, lfoIndices;
  var reverb, delay;
  var drySound, filterFreq, filteredSound;
  
  // Define the A minor scale and root note (A3)
  scale = [0, 2, 3, 5, 7, 8, 10]; // Degrees of A minor
  rootNote = 57; // MIDI note number for A3
  degrees = scale;
  
  // Create evolving pad frequencies with slow LFOs
  lfos = Array.fill(4, { |i|
    LFNoise1.kr(0.003 + (i * 0.001)).range(0, 6).round(1).clip(0, 6);
  });
  
  lfoIndices = lfos.collect { |lfo| Select.kr(lfo, degrees) };
  
  padFreqs = lfoIndices.collect { |degree|
    (rootNote + degree).midicps;
  };
  
  // Slight detuning for each pad oscillator
  padDetune = [0.995, 1.0, 1.005, 1.01];
  
  padOscs = Array.fill(4, { |i|
    var freq = padFreqs[i] * padDetune[i];
    var osc = Saw.ar(freq, 0.15);
    osc = osc * 0.25;
    osc;
  });
  
  pad = Mix.new(padOscs);
  
  // Gentle melodic elements emerging over time
  melodyTrig = Dust.kr(0.015); // Average every ~66 seconds
  melodyDegree = Demand.kr(melodyTrig, 0, Dshuf(scale, inf));
  melodyFreq = (rootNote + melodyDegree).midicps;
  melodyEnv = EnvGen.kr(Env.perc(1.0, 3.0, 1, -4), melodyTrig);
  melodyOsc = SinOsc.ar(melodyFreq, 0, melodyEnv * 0.4);
  
  // Subtle noise-based textures
  noiseEnvs = [
    EnvGen.kr(Env.sine(30, 1, -1, 1), Impulse.kr(0.0005)),
    EnvGen.kr(Env.sine(40, 1, -1, 1), Impulse.kr(0.0007))
  ];
  
  noiseFilterFreqs = [
    LFNoise0.kr(0.02).range(300, 2000),
    LFNoise0.kr(0.015).range(500, 2500)
  ];
  
  noises = Array.fill(2, { |i|
    var n = PinkNoise.ar(noiseEnvs[i] * 0.15);
    n = RLPF.ar(n, noiseFilterFreqs[i], 0.2);
    n;
  });
  
  noise = Mix.new(noises);
  
  // Subtle rhythmic pulses
  pulseTrigs = [
    Impulse.kr(0.33),
    Impulse.kr(0.25),
    Impulse.kr(0.5)
  ];
  
  pulseDegrees = pulseTrigs.collect { |trig|
    Demand.kr(trig, 0, Dshuf(scale, inf));
  };
  
  pulseFreqs = pulseDegrees.collect { |degree|
    (rootNote + degree).midicps;
  };
  
  pulseEnvs = pulseTrigs.collect { |trig|
    EnvGen.kr(Env.perc(0.02, 0.15, 1, -4), trig);
  };
  
  pulseOscs = Array.fill(3, { |i|
    var osc = SinOsc.ar(pulseFreqs[i], 0, pulseEnvs[i] * 0.2);
    osc;
  });
  
  pulseOsc = Mix.new(pulseOscs);
  
  // Combine all elements
  drySound = pad + melodyOsc + noise + pulseOsc;
  
  // Apply filtering to enhance spaciousness
  filterFreq = LFNoise1.kr(0.1).range(500, 2000);
  filteredSound = RLPF.ar(drySound, filterFreq, 0.3);
  
  // Add reverb and delay
  reverb = FreeVerb.ar(filteredSound, mix: 0.5, room: 0.9, damp: 0.5);
  delay = CombC.ar(filteredSound, maxdelaytime: 1.0, delaytime: 0.75, decaytime: 6);
  
  // Combine dry and processed signals
  sound = (drySound * 0.4) + (reverb * 0.3) + (delay * 0.3);
  
  // Apply limiter to manage amplitude
  sound = Limiter.ar(sound, 0.9);
  
  // Output sound in stereo using Pan2
  Out.ar(out, Pan2.ar(sound, 0)); // 0 means centered pan
}).writeDefFile("/app/supercollider/synthdefs");