SynthDef.new("openai-o1-preview-2024_12_18_05_37_57", { |out=0, amp=0.5|
    var sound,
    bassOsc, bassFreq, bassTrig, bassNotes, bassFreqs, bassRate, bassEnv, bassFilter, bassFilterFreq,
    melodyOsc, melodyFreq, melodyTrig, melodyNotes, melodyFreqs, melodyRate, melodyEnv, melodyFilter, melodyFilterFreq,
    harmonyOsc, harmonyFreq, harmonyTrig, harmonyNotes, harmonyFreqs, harmonyRate, harmonyEnv, harmonyFilter, harmonyFilterFreq,
    noiseLayer, noiseEnv, noiseFilter, noiseFilterFreq,
    percussiveOsc, percussiveTrig, percussiveEnv, percussiveFilter, percussiveFilterFreq,
    feedbackIn, feedbackProc,
    reverb, delay,
    panner,
    limiter,
    overallEnv;

// Bass Layer
bassNotes = [45, 40, 41, 38]; // MIDI notes for A2, E2, F2, D2
bassFreqs = bassNotes.midicps;
bassRate = 0.5;
bassTrig = Impulse.kr(bassRate);
bassFreq = Demand.kr(bassTrig, 0, Dseq(bassFreqs, inf));
bassEnv = EnvGen.kr(Env.perc(0.01, 0.2), bassTrig);
bassOsc = SinOsc.ar(bassFreq) * bassEnv;
bassFilterFreq = LFNoise1.kr(0.1).exprange(80, 200);
bassFilter = LPF.ar(bassOsc, bassFilterFreq);

// Melody Layer
melodyNotes = [60, 62, 64, 65, 67, 69, 71, 72]; // MIDI notes for A minor scale
melodyFreqs = melodyNotes.midicps;
melodyRate = LFNoise1.kr(0.1).exprange(0.1, 0.5);
melodyTrig = Impulse.kr(melodyRate);
melodyFreq = Demand.kr(melodyTrig, 0, Dshuf(melodyFreqs, inf));
melodyEnv = EnvGen.kr(Env.perc(0.01, 0.5), melodyTrig);
melodyOsc = Saw.ar(melodyFreq) * melodyEnv;
melodyFilterFreq = LFNoise1.kr(0.05).exprange(500, 2000);
melodyFilter = BPF.ar(melodyOsc, melodyFilterFreq, 0.5);

// Harmony Layer
harmonyNotes = [57, 59, 60, 62, 64, 65, 67, 69]; // MIDI notes one octave below melody
harmonyFreqs = harmonyNotes.midicps;
harmonyRate = LFNoise1.kr(0.05).exprange(0.1, 0.3);
harmonyTrig = Impulse.kr(harmonyRate);
harmonyFreq = Demand.kr(harmonyTrig, 0, Dshuf(harmonyFreqs, inf));
harmonyEnv = EnvGen.kr(Env.perc(0.01, 0.5), harmonyTrig);
harmonyOsc = Pulse.ar(harmonyFreq) * harmonyEnv;
harmonyFilterFreq = LFNoise1.kr(0.03).exprange(200, 1000);
harmonyFilter = BPF.ar(harmonyOsc, harmonyFilterFreq, 0.3);

// Noise Layer
noiseEnv = EnvGen.kr(Env.perc(2, 5), Impulse.kr(LFNoise1.kr(0.2).range(0.01, 0.1)));
noiseLayer = PinkNoise.ar() * noiseEnv;
noiseFilterFreq = LFNoise1.kr(0.1).exprange(200, 8000);
noiseFilter = RLPF.ar(noiseLayer, noiseFilterFreq, 0.5);

// Percussive Impulses
percussiveTrig = Dust.kr(LFNoise1.kr(0.5).range(0.2, 0.5));
percussiveEnv = EnvGen.kr(Env.perc(0.005, 0.1), percussiveTrig);
percussiveOsc = WhiteNoise.ar() * percussiveEnv;
percussiveFilterFreq = LFNoise1.kr(3).exprange(500, 8000);
percussiveFilter = BPF.ar(percussiveOsc, percussiveFilterFreq, 0.1);

// Feedback Loop
feedbackIn = LocalIn.ar(1);
feedbackProc = AllpassC.ar(feedbackIn * 0.98, 0.05, 0.05, 1) + (bassFilter + melodyFilter + harmonyFilter + noiseFilter + percussiveFilter);
LocalOut.ar(feedbackProc);

// Combine Layers
sound = feedbackProc;

// Non-linear Waveshaping and Pitch Shifting
sound = tanh(sound);
sound = PitchShift.ar(sound, 0.2, LFNoise1.kr(0.05).range(0.95, 1.05));

// Reverb and Delay
reverb = GVerb.ar(sound, 50, 8, 0.5, 0.5, 15, 1, 0.7, 0.5, 300);
delay = CombL.ar(reverb, 0.3, 0.3, 8);

// Spatial Modulation
panner = Splay.ar(delay);

// Overall Amplitude Envelope
overallEnv = EnvGen.kr(Env.asr(10, 1, 600));

// Amplitude Limiting
limiter = Limiter.ar(panner * overallEnv, 0.9);

// Final Output
sound = limiter;
    Out.ar(out, sound * amp);
}).writeDefFile("/app/supercollider/synthdefs");