
SynthDef.new("openai-o1-preview-2024_12_18_05_11_53", { |out=0, amp=0.5|
    var sound;
    var sound, layer1, layer2, layer3, feedback, delaySignal, reverb, finalMix;

// Layer 1: Slowly shifting pitched elements
layer1 = Mix.fill(5, { |i|
	var freqMod = LFNoise1.kr(0.01 + (i * 0.005)).range(-5, 5);
	var freq = [110, 220, 330, 440, 550][i] + freqMod;
	var osc = Saw.ar(freq) * 0.2;
	var panPos = SinOsc.kr(0.05 + (i * 0.01)).range(-1, 1);
	Pan2.ar(osc, panPos);
});

// Layer 2: Dense, evolving noise-based textures
layer2 = PinkNoise.ar(LFNoise1.kr(0.02).range(0.1, 0.5));
layer2 = RLPF.ar(layer2, LFNoise1.kr(0.1).exprange(200, 4000), 0.5);
layer2 = BPF.ar(layer2, LFNoise1.kr(0.05).exprange(300, 6000), 0.2);
layer2 = HPF.ar(layer2, LFNoise1.kr(0.03).exprange(50, 500));

// Layer 3: Subtle percussive impulses
layer3 = Dust.kr(0.5);
layer3 = Decay.ar(layer3, 0.2, FreqShift.ar(WhiteNoise.ar * 0.1, LFNoise1.kr(0.5).exprange(300, 8000)));
layer3 = BPF.ar(layer3, LFNoise1.kr(0.2).exprange(500, 8000), 0.1);

// Local feedback loop
feedback = LocalIn.ar(2);
feedback = (feedback * 0.98) + (layer3 ! 2);
delaySignal = DelayN.ar(feedback, 0.5, 0.5);
LocalOut.ar(delaySignal);

// Combine layers
sound = layer1 + layer2 + feedback;

// Non-linear waveshaping
sound = tanh(sound * 2);

// Pitch shifting
sound = PitchShift.ar(sound, 0.5, LFNoise1.kr(0.05).range(0.95, 1.05), 0, 0.05);

// Reverb and spatialization
reverb = GVerb.ar(sound, 50, 8, mul: 0.3);
finalMix = sound + reverb;
finalMix = Splay.ar(finalMix, spread: 0.7);

// Amplitude limiting
sound = Limiter.ar(finalMix, 0.9);
    Out.ar(out, sound * amp);
}).writeDefFile("/app/supercollider/synthdefs");
