
SynthDef.new("openai-o1-preview-2024_12_18_05_58_13", { |out=0, amp=0.5|
    var sound;
    var baseFreq, baseMidi, scaleDegrees, scaleMidi, scaleFreqs;
var padFreqs, padOscs, padEnvs, pad;
var melodyFreq, melodyEnv, melody;
var noiseTexture, noiseEnv;
var rhythmicPulseFreq, rhythmicPulseEnv, rhythmicPulse;
var filteredPad, filteredMelody, filteredNoise, filteredPulse;
var reverb;
var sound;
var lfo1, lfo2, lfo3;
var ampEnv;

// Define base frequency and scale
baseFreq = 440; // A4
baseMidi = 69;  // MIDI note number for A4
scaleDegrees = [0, 2, 3, 5, 7, 8, 10]; // A minor scale degrees
scaleMidi = scaleDegrees + baseMidi;
scaleFreqs = scaleMidi.midicps;

// Pad frequencies with slowly changing indices
lfo1 = LFNoise0.kr(0.005).range(0, scaleFreqs.size - 1).round;
lfo2 = LFNoise0.kr(0.004).range(0, scaleFreqs.size - 1).round;
lfo3 = LFNoise0.kr(0.003).range(0, scaleFreqs.size - 1).round;
padFreqs = [
    Select.kr(lfo1, scaleFreqs),
    Select.kr(lfo2, scaleFreqs),
    Select.kr(lfo3, scaleFreqs)
];

// Pad envelopes
padEnvs = [
    EnvGen.kr(Env.linen(10, 60, 10)),
    EnvGen.kr(Env.linen(12, 80, 12)),
    EnvGen.kr(Env.linen(8, 70, 8))
];

// Pad oscillators
padOscs = [
    Saw.ar(padFreqs[0]) * padEnvs[0] * 0.2,
    Pulse.ar(padFreqs[1], 0.5) * padEnvs[1] * 0.2,
    SinOsc.ar(padFreqs[2]) * padEnvs[2] * 0.2
];

// Combine pad sounds
pad = padOscs.sum;

// Melody element
melodyFreq = Demand.kr(Dust.kr(0.01), 0, Dshuf(scaleFreqs, inf));
melodyEnv = EnvGen.kr(Env.perc(2, 4), Dust.kr(0.01));
melody = SinOsc.ar(melodyFreq) * melodyEnv * 0.3;

// Noise texture
noiseEnv = EnvGen.kr(Env.linen(20, 100, 20));
noiseTexture = PinkNoise.ar() * noiseEnv * 0.1;
noiseTexture = BPF.ar(noiseTexture, LFNoise1.kr(0.01).exprange(200, 2000), 0.2);

// Rhythmic pulse
rhythmicPulseFreq = Demand.kr(Impulse.kr(0.5), 0, Drand(scaleFreqs, inf));
rhythmicPulseEnv = Decay.ar(Impulse.ar(0.5), 0.3);
rhythmicPulse = SinOsc.ar(rhythmicPulseFreq) * rhythmicPulseEnv * 0.2;

// Filtered components
filteredPad = RLPF.ar(pad, LFNoise1.kr(0.01).range(500, 5000), 0.5);
filteredMelody = RLPF.ar(melody, LFNoise1.kr(0.02).range(500, 6000), 0.5);
filteredNoise = HPF.ar(noiseTexture, 100);
filteredPulse = BPF.ar(rhythmicPulse, 1000, 0.5);

// Sum all components
sound = filteredPad + filteredMelody + filteredNoise + filteredPulse;

// Apply reverb
reverb = FreeVerb.ar(sound, 0.5, 0.8, 0.5);

// Final sound with limiter
sound = Limiter.ar(reverb, 0.5);
    Out.ar(out, sound * amp);
}).writeDefFile("/app/supercollider/synthdefs");
