SynthDef.new("openai-o1-preview-2024_12_18_05_52_44", { |out=0, amp=0.5|
  var sound, pitchedElements, noiseTextures, percussiveImpulses, feedbackLoop, localIn, localOut, randFreqs, randPhases, lfoFreqs, lfoAmps, noises, filters, shapers, delayLines, reverb, pan, ampEnv, noiseEnv, triggers, envs, freqMods, ampMods;
  
  // Slowly shifting pitched elements
  randFreqs = Array.fill(5, { rrand(100, 500) });
  randPhases = Array.fill(5, { rrand(0, 2pi) });
  lfoFreqs = Array.fill(5, { LFNoise1.kr(rrand(0.001, 0.01)) * rrand(50, 100) });
  lfoAmps = Array.fill(5, { LFNoise1.kr(rrand(0.005, 0.02)) * 0.05 });
  ampEnv = EnvGen.kr(Env.asr(60, 1, 60), timeScale: 1);
  pitchedElements = Mix.fill(5, { |i|
    var freq = randFreqs[i] + lfoFreqs[i];
    var amp = 0.1 + lfoAmps[i];
    SinOsc.ar(freq, randPhases[i]) * amp * ampEnv;
  });
  
  // Dense, evolving noise-based textures
  noises = [PinkNoise.ar(0.1), BrownNoise.ar(0.1), WhiteNoise.ar(0.1)];
  noiseEnv = EnvGen.kr(Env.asr(120, 1, 120), timeScale: 1);
  noiseTextures = Mix.fill(3, { |i|
    var modFreq = LFNoise1.kr(rrand(0.001, 0.01)).exprange(200, 2000);
    var modRQ = LFNoise1.kr(rrand(0.05, 0.1)).range(0.2, 0.8);
    RLPF.ar(noises[i], modFreq, modRQ) * noiseEnv;
  });
  
  // Subtle percussive impulses
  triggers = Dust.kr(1 / rrand(2, 5));
  envs = EnvGen.ar(Env.perc(0.01, rrand(0.1, 0.5)), triggers) * 0.2;
  percussiveImpulses = RLPF.ar(WhiteNoise.ar * envs, rrand(1000, 4000), 0.7);
  
  // Feedback loop with LocalIn/LocalOut
  localIn = LocalIn.ar(1);
  feedbackLoop = (pitchedElements + noiseTextures + percussiveImpulses + (localIn * 0.97)) * 0.25;
  feedbackLoop = feedbackLoop.tanh;
  LocalOut.ar(feedbackLoop);
  filters = BPF.ar(feedbackLoop, LFNoise1.kr(0.05).exprange(300, 2000), 0.5);
  
  // Combine all elements
  sound = pitchedElements + noiseTextures + percussiveImpulses + filters;
  sound = sound.tanh;
  
  // Non-linear waveshaping and pitch shifting
  sound = PitchShift.ar(sound, 0.2, LFNoise1.kr(0.05).range(0.98, 1.02), 0, 0.05);
  
  // Delays and reverbs
  delayLines = CombL.ar(sound, 0.5, [0.3, 0.4], [5, 7]);
  reverb = FreeVerb.ar(delayLines, 0.5, 0.8, 0.5);
  sound = sound + reverb;
  
  // Spatial modulation
  pan = LFNoise1.kr(0.1).range(-1, 1);
  sound = Pan2.ar(sound, pan);
  
  // Amplitude limiting
  sound = Limiter.ar(sound, 0.5);
  Out.ar(out, sound * amp);
}).writeDefFile("/app/sc/synthdefs");